X: 60
T:Puin Bracken
M:C
L:1/4
S:AB:||B
R:Reel
K:AM % no sharps or flats
e||:AAa2|geg2|e&gt;d BA|GA B/2A/2G|AAa2|geg2|e&gt;dBe|A2-A2|!
e&gt;d BA|GA B/2A/2G|e&gt;dBA|B<DB<D|E>d BA|GA B/2A/2G|e&gt;dBe|A2-A2:||!
e&gt;d BA|GA B/2A/2G|e&gt;dBA|B<DB<D|E>d BA|GA B/2A/2G|e&gt;dBe|A2-A2|!

